X: 33216
T: Prunty's Two Step
R: reel
M: 4/4
K: Gmajor
|:d2d2 BG (3Bcd|BGBd cAFA|d2d2 BG (3Bcd|cAFA G4:|
|:B2 BAGE E2|c2 cBAG F2|d2d2 BG (3Bcd|cAFA G4:|

